(Made in : Autodesk CAM Post Processor)
(G-Code optimized for Grbl 1.1 / BlackBox controller)
(OpenBuilds CNC : GRBL/BlackBox)
(Post-Processor : OpenbuildsFusion360PostGrbl.cps V1.0.29)
(Units = mm)
(Laser UseZ = false)

(Drawing name : Untitled)
(Program Name : Bearing Supports)

(2 Operations in 1 files.)
(File List:)
(  Bearing Supports.gcode)

(This is file: 1 of 1)

(This file contains the following operations: )
(1 : 2D Profile4)
(  Work Coordinate System : G54)
(  Tool 1: Plasma Cutter Diam = 1mm)
(  Machining time : 2 sec)
(2 : 2D Profile5)
(  Work Coordinate System : G54)
(  Tool 1: Plasma Cutter Diam = 1mm)
(  Machining time : 24 sec)

G90 G94 G17
G21

(Plasma pierce height 0)
(Plasma topHeight 0)

(Operation 1 of 2 : 2D Profile4)
G54
(Plasma cutting with GRBL.)
G0 X79.747 Y74.342
M3 S1000
G4 P1.
G1 X79.747 Y61.655 F2000
M5
G0 Y46.403
M3
G4 P1.
G1 X79.747 Y33.715
M5
G0 Y18.462
M3
G4 P1.
G1 X79.747 Y5.775
M5
G0 X18.461 Y18.45
M3
G4 P1.
G1 X18.461 Y5.775
M5
G0 Y46.39
M3
G4 P1.
G1 X18.461 Y33.715
M5
G0 Y74.33
M3
G4 P1.
G1 X18.461 Y61.655
M5

(Plasma pierce height 0)
(Plasma topHeight 0)

(Operation 2 of 2 : 2D Profile5)
(Plasma cutting with GRBL.)
G0 X68.799 Y72.168
M3
G4 P1.
G1 X67.066 Y71.168 F2000
G3 X72.417 Y71.168 I2.675 J0
X67.066 Y71.168 I-2.675 J0
G1 X68.799 Y70.168
M5
G0 X28.882 Y69.857
M3
G4 P1.
G1 X30.876 Y70.006
G3 X26.057 Y72.329 I-2.41 J1.162
X30.876 Y70.006 I2.41 J-1.162
G1 X29.75 Y71.659
M5
G0 X51.267 Y54.648
M3
G4 P1.
G1 X50.267 Y56.38
X1 Y56.38
G2 X0.5 Y56.88 I0 J0.5
G1 X0.5 Y61.608
G2 X2.134 Y65.554 I5.58 J0
G1 X14.551 Y77.971
G2 X18.497 Y79.605 I3.946 J-3.946
G1 X28.466 Y79.605
G2 X35.678 Y75.548 I0 J-8.438
G3 X62.551 Y75.582 I13.424 J10.447
G2 X69.742 Y79.605 I7.19 J-4.415
G1 X79.712 Y79.605
G2 X83.657 Y77.971 I0 J-5.58
G1 X96.074 Y65.554
G2 X97.708 Y61.608 I-3.946 J-3.946
G1 X97.708 Y56.88
G2 X97.208 Y56.38 I-0.5 J0
G1 X50.267 Y56.38
X49.267 Y54.648
M5
G0 X69.326 Y44.538
M3
G4 P1.
G1 X67.332 Y44.389
G3 X72.151 Y42.066 I2.41 J-1.162
X67.332 Y44.389 I-2.41 J1.162
G1 X68.458 Y42.736
M5
G0 X28.882 Y41.917
M3
G4 P1.
G1 X30.876 Y42.066
G3 X26.057 Y44.389 I-2.41 J1.162
X30.876 Y42.066 I2.41 J-1.162
G1 X29.75 Y43.719
M5
G0 X51.267 Y26.708
M3
G4 P1.
G1 X50.267 Y28.44
X1 Y28.44
G2 X0.5 Y28.94 I0 J0.5
G1 X0.5 Y33.668
G2 X2.134 Y37.614 I5.58 J0
G1 X14.551 Y50.031
G2 X18.497 Y51.665 I3.946 J-3.946
G1 X28.466 Y51.665
G2 X35.678 Y47.608 I0 J-8.438
G3 X62.551 Y47.642 I13.424 J10.447
G2 X69.742 Y51.665 I7.19 J-4.415
G1 X79.712 Y51.665
G2 X83.657 Y50.031 I0 J-5.58
G1 X96.074 Y37.614
G2 X97.708 Y33.668 I-3.946 J-3.946
G1 X97.708 Y28.94
G2 X97.208 Y28.44 I-0.5 J0
G1 X50.267 Y28.44
X49.267 Y26.708
M5
G0 X69.326 Y16.598
M3
G4 P1.
G1 X67.332 Y16.449
G3 X72.151 Y14.126 I2.41 J-1.162
X67.332 Y16.449 I-2.41 J1.162
G1 X68.458 Y14.796
M5
G0 X29.439 Y14.316
M3
G4 P1.
G1 X31.14 Y15.367
G3 X25.793 Y15.208 I-2.674 J-0.08
X31.14 Y15.367 I2.674 J0.08
G1 X29.379 Y16.315
M5
G0 X36.659 Y21.193
M3
G4 P1.
G1 X35.955 Y19.321
G3 X62.551 Y19.702 I13.146 J10.794
G2 X69.742 Y23.725 I7.19 J-4.415
G1 X79.712 Y23.725
G2 X83.657 Y22.091 I0 J-5.58
G1 X96.074 Y9.674
G2 X97.708 Y5.728 I-3.946 J-3.946
G1 X97.708 Y1
G2 X97.208 Y0.5 I-0.5 J0
G1 X1 Y0.5
G2 X0.5 Y1 I0 J0.5
G1 X0.5 Y5.728
G2 X2.134 Y9.674 I5.58 J0
G1 X14.551 Y22.091
G2 X18.497 Y23.725 I3.946 J-3.946
G1 X28.466 Y23.725
G2 X35.678 Y19.668 I0 J-8.438
G3 X35.955 Y19.321 I13.424 J10.447
G1 X37.928 Y19.647
M5

M5
M30
