; generated by SuperSlicer 2.3.57 on 2022-01-29 at 19:50:42 UTC


;
;

;
;
; TODO: check the size of the extruder and the y-bar clearance. Optimize & test supports.

; external perimeters extrusion width = 0.42mm
; perimeters extrusion width = 0.46mm
; infill extrusion width = 0.44mm
; solid infill extrusion width = 0.46mm
; top infill extrusion width = 0.44mm
; first layer extrusion width = 0.56mm

; external perimeters extrusion width = 0.42mm
; perimeters extrusion width = 0.46mm
; infill extrusion width = 0.44mm
; solid infill extrusion width = 0.46mm
; top infill extrusion width = 0.44mm
; first layer extrusion width = 0.56mm

; external perimeters extrusion width = 0.42mm
; perimeters extrusion width = 0.46mm
; infill extrusion width = 0.44mm
; solid infill extrusion width = 0.46mm
; top infill extrusion width = 0.44mm
; first layer extrusion width = 0.56mm

; object:{"name":"patch_bed_leveling","id":"patch_bed_leveling id:0 copy 0","object_center":[20.000000,330.000000,0.000000],"boundingbox_center":[20.000000,330.000000,0.991025],"boundingbox_size":[10.000060,21.433014,1.982050]}
; object:{"name":"patch_bed_leveling","id":"patch_bed_leveling id:1 copy 0","object_center":[330.000000,20.000000,0.000000],"boundingbox_center":[330.000000,20.000000,0.991025],"boundingbox_size":[10.000060,21.433014,1.982050]}
; object:{"name":"patch_bed_leveling","id":"patch_bed_leveling id:2 copy 0","object_center":[175.000000,175.000000,0.000000],"boundingbox_center":[175.000000,175.000000,0.991025],"boundingbox_size":[22.226500,22.226500,1.982050]}
; object:{"name":"patch_bed_leveling","id":"patch_bed_leveling id:3 copy 0","object_center":[20.000000,20.000000,0.000000],"boundingbox_center":[20.000000,20.000000,0.991025],"boundingbox_size":[21.433014,10.000060,1.982050]}
; object:{"name":"patch_bed_leveling","id":"patch_bed_leveling id:4 copy 0","object_center":[330.000000,330.000000,0.000000],"boundingbox_center":[330.000000,330.000000,0.991025],"boundingbox_size":[21.433014,10.000060,1.982050]}
; plater:{"center":[175.000000,175.000000,0.000000],"boundingbox_center":[175.000000,175.000000,0.991025],"boundingbox_size":[331.433014,331.433014,1.982050]}

;TYPE:Custom
; M190 S0
; M109 S0 ; uncomment to remove set&wait temp gcode added automatically after this start gcode
print_start EXTRUDER=250 BED=100 CHAMBER=50
M107
G21 ; set units to millimeters
G90 ; use absolute coordinates
M83 ; use relative distances for extrusion
M104 S250 ; set temperature
M109 S250 ; set temperature and wait for it to be reached
M190 S100 ; set bed temperature and wait for it to be reached
;LAYER_CHANGE
;Z:0.2
;HEIGHT:0.2
;BEFORE_LAYER_CHANGE
;0.2


G1 Z0.2 F18000
;AFTER_LAYER_CHANGE
;0.2
G1 E-0.75 F3000
G1 Z0.6 F18000
M204 S1500
G1 X15.019 Y314.558
G1 Z0.2
G1 E0.75 F1800
;TYPE:Skirt
;WIDTH:0.52
G1 X13.778 Y314.715 E0.04963
G1 X12.497 Y315.196 E0.05425
G1 X11.371 Y315.972 E0.05425
G1 X10.469 Y316.991 E0.05402
G1 X9.835 Y318.203 E0.05425
G1 X9.574 Y319.139 E0.03853
G1 X9.477 Y320.105 E0.03853
G1 X9.516 Y341.282 E0.84006
G1 X9.658 Y342.035 E0.03042
G1 X9.902 Y342.763 E0.03042
G1 X10.242 Y343.45 E0.03042
G1 X10.673 Y344.084 E0.03042
G1 X11.186 Y344.655 E0.03042
G1 X11.771 Y345.15 E0.03042
G1 X12.419 Y345.56 E0.03042
G1 X13.122 Y345.881 E0.03065
G1 X14.04 Y346.14 E0.03784
G1 X14.989 Y346.239 E0.03784
G1 X24.952 Y346.24 E0.39523
G1 X25.965 Y346.139 E0.04038
G1 X27.324 Y345.691 E0.05679
G1 X28.527 Y344.915 E0.05679
G1 X29.495 Y343.86 E0.05679
G1 X30.165 Y342.595 E0.05679
G1 X30.428 Y341.653 E0.03876
G1 X30.524 Y340.681 E0.03876
G1 X30.524 Y320.153 E0.81432
G1 X30.428 Y319.146 E0.04015
G1 X30.167 Y318.21 E0.03853
G1 X29.749 Y317.333 E0.03853
G1 X29.187 Y316.541 E0.03853
G1 X28.492 Y315.854 E0.03876
G1 X27.694 Y315.3 E0.03853
G1 X26.812 Y314.893 E0.03853
G1 X25.873 Y314.642 E0.03853
G1 X24.906 Y314.558 E0.03853
G1 X15.079 Y314.558 E0.38982
G1 X15.079 Y314.797 F18000
M204 S1000
G1 X15.079 Y315.035
G1 F1800
G1 X15.041 Y315.035 E0.00149
G1 X13.964 Y315.162 E0.04305
G1 X12.78 Y315.587 E0.0499
G1 X11.73 Y316.291 E0.05012
G1 X10.884 Y317.229 E0.05012
G1 X10.294 Y318.34 E0.0499
G1 X10.045 Y319.212 E0.03597
G1 X9.954 Y320.109 E0.03575
G1 X9.984 Y341.178 E0.83583
G1 X10.326 Y342.539 E0.05563
G1 X11.025 Y343.761 E0.05585
G1 X12.025 Y344.744 E0.05563
G1 X13.259 Y345.423 E0.05585
G1 X14.114 Y345.668 E0.03531
G1 X14.994 Y345.762 E0.03509
G1 X24.936 Y345.763 E0.39442
G1 X25.811 Y345.682 E0.03486
G1 X27.069 Y345.284 E0.05233
G1 X28.184 Y344.579 E0.05233
G1 X29.084 Y343.615 E0.05233
G1 X29.706 Y342.458 E0.05211
G1 X29.956 Y341.58 E0.03619
G1 X30.047 Y340.673 E0.03619
G1 X30.047 Y320.162 E0.81364
G1 X29.969 Y319.292 E0.03464
G1 X29.739 Y318.427 E0.03553
G1 X29.361 Y317.615 E0.03553
G1 X28.849 Y316.88 E0.03553
G1 X28.212 Y316.242 E0.03575
G1 X27.479 Y315.727 E0.03553
G1 X26.663 Y315.346 E0.03575
G1 X25.798 Y315.114 E0.03553
G1 X24.906 Y315.035 E0.03553
G1 X15.139 Y315.035 E0.38743
M204 S1500
G1 X15.139 Y315.273 F18000
M204 S1000
G1 X15.139 Y315.512
G1 F1800
G1 X15.057 Y315.512 E0.00324
G1 X14.141 Y315.611 E0.03658
G1 X13.053 Y315.984 E0.04563
G1 X12.085 Y316.616 E0.04584
G1 X11.302 Y317.465 E0.04584
G1 X10.751 Y318.481 E0.04584
G1 X10.517 Y319.285 E0.03321
G1 X10.431 Y320.123 E0.03342
G1 X10.453 Y341.08 E0.83136
G1 X10.755 Y342.327 E0.05088
G1 X11.381 Y343.44 E0.05067
G1 X12.285 Y344.342 E0.05067
G1 X13.4 Y344.966 E0.05067
G1 X14.188 Y345.196 E0.03257
G1 X15.004 Y345.285 E0.03257
G1 X24.927 Y345.286 E0.39362
G1 X25.67 Y345.222 E0.02962
G1 X26.822 Y344.873 E0.04773
G1 X27.845 Y344.24 E0.04773
G1 X28.67 Y343.372 E0.04752
G1 X29.249 Y342.317 E0.04773
G1 X29.484 Y341.508 E0.03342
G1 X29.569 Y340.67 E0.03342
G1 X29.57 Y320.166 E0.81339
G1 X29.509 Y319.432 E0.0292
G1 X29.307 Y318.636 E0.03257
G1 X28.968 Y317.888 E0.03257
G1 X28.503 Y317.211 E0.03257
G1 X27.928 Y316.626 E0.03257
G1 X27.258 Y316.151 E0.03257
G1 X26.516 Y315.8 E0.03257
G1 X25.723 Y315.585 E0.03257
G1 X24.905 Y315.512 E0.03257
G1 X15.199 Y315.512 E0.38504
M204 S1500
G1 X15.199 Y315.75 F18000
M204 S1000
G1 X15.199 Y315.989
G1 F1800
G1 X15.07 Y315.989 E0.00511
G1 X14.306 Y316.065 E0.03046
G1 X13.313 Y316.389 E0.04143
G1 X12.427 Y316.951 E0.04163
G1 X11.709 Y317.716 E0.04163
G1 X11.205 Y318.631 E0.04143
G1 X10.987 Y319.367 E0.03046
G1 X10.908 Y320.131 E0.03046
G1 X10.924 Y340.995 E0.82766
G1 X11.184 Y342.115 E0.04561
G1 X11.738 Y343.122 E0.04561
G1 X12.549 Y343.944 E0.04581
G1 X13.549 Y344.512 E0.04561
G1 X14.271 Y344.726 E0.02986
G1 X15.014 Y344.808 E0.02966
G1 X25.539 Y344.76 E0.41754
G1 X26.581 Y344.458 E0.04302
G1 X27.514 Y343.895 E0.04322
G1 X28.267 Y343.115 E0.04302
G1 X28.795 Y342.167 E0.04302
G1 X29.014 Y341.426 E0.03066
G1 X29.092 Y340.662 E0.03046
G1 X29.047 Y319.567 E0.83683
G1 X28.872 Y318.84 E0.02966
G1 X28.573 Y318.16 E0.02946
G1 X28.156 Y317.54 E0.02966
G1 X27.639 Y317.007 E0.02946
G1 X27.036 Y316.574 E0.02946
G1 X26.366 Y316.253 E0.02946
G1 X25.65 Y316.056 E0.02946
G1 X24.905 Y315.989 E0.02966
G1 X15.259 Y315.989 E0.38265
M204 S1500
G1 X15.26 Y316.253 F18000
M204 S1000
G1 X15.262 Y316.517
G1 F1800
G1 X14.462 Y316.521 E0.03172
G1 X13.564 Y316.798 E0.0373
G1 X12.767 Y317.289 E0.03712
G1 X12.116 Y317.968 E0.0373
G1 X11.657 Y318.783 E0.03712
G1 X11.457 Y319.448 E0.02754
G1 X11.385 Y320.139 E0.02754
G1 X11.396 Y340.914 E0.82416
G1 X11.619 Y341.915 E0.04067
G1 X12.103 Y342.813 E0.04049
G1 X12.814 Y343.546 E0.04049
G1 X13.702 Y344.059 E0.04067
G1 X14.353 Y344.256 E0.02698
G1 X15.024 Y344.331 E0.02679
G1 X25.415 Y344.296 E0.41223
G1 X26.349 Y344.038 E0.03843
G1 X27.184 Y343.547 E0.03843
G1 X27.864 Y342.857 E0.03843
G1 X28.343 Y342.015 E0.03843
G1 X28.543 Y341.345 E0.02773
G1 X28.615 Y340.655 E0.02754
G1 X28.582 Y319.685 E0.83186
G1 X28.435 Y319.036 E0.02641
G1 X28.173 Y318.423 E0.02641
G1 X27.807 Y317.867 E0.02641
G1 X27.347 Y317.386 E0.02641
G1 X26.809 Y316.994 E0.02641
G1 X26.209 Y316.704 E0.02641
G1 X25.568 Y316.526 E0.02641
G1 X24.905 Y316.466 E0.02641
G1 X15.322 Y316.516 E0.38015
M204 S1500
G1 X15.323 Y316.748 F18000
M204 S1000
G1 X15.324 Y316.979
G1 F1800
G1 X14.599 Y316.982 E0.02876
G1 X13.807 Y317.212 E0.03272
G1 X13.099 Y317.635 E0.03272
G1 X12.518 Y318.227 E0.03289
G1 X12.108 Y318.942 E0.03272
G1 X11.927 Y319.532 E0.02448
G1 X11.862 Y320.146 E0.02448
G1 X11.87 Y340.848 E0.82126
G1 X12.057 Y341.724 E0.03551
G1 X12.474 Y342.511 E0.03534
G1 X13.093 Y343.158 E0.03551
G1 X13.861 Y343.609 E0.03534
G1 X14.438 Y343.787 E0.02395
G1 X15.038 Y343.854 E0.02395
G1 X25.3 Y343.83 E0.4071
G1 X26.124 Y343.615 E0.03376
G1 X26.863 Y343.193 E0.03376
G1 X27.466 Y342.592 E0.03376
G1 X27.892 Y341.856 E0.03376
G1 X28.073 Y341.266 E0.02448
G1 X28.138 Y340.648 E0.02465
G1 X28.115 Y319.795 E0.82722
G1 X27.993 Y319.222 E0.02325
G1 X27.769 Y318.68 E0.02325
G1 X27.452 Y318.187 E0.02325
G1 X27.051 Y317.76 E0.02325
G1 X26.579 Y317.412 E0.02325
G1 X26.052 Y317.155 E0.02325
G1 X25.488 Y316.997 E0.02325
G1 X24.904 Y316.943 E0.02325
G1 X15.384 Y316.979 E0.37769
; INIT printing object patch_bed_leveling id:0 copy 0
G1 E-0.75 F3000
M204 S1500
G1 Z0.6 F18000
; printing object patch_bed_leveling id:0 copy 0
G1 X15.382 Y318.72
M204 S1000
G1 X15.38 Y320.461
G1 Z0.2
G1 E0.75 F1800
;TYPE:External perimeter
;WIDTH:0.56
G1 X24.62 Y320.461 E0.39727
G1 X24.62 Y320.573 E0.00479
G1 X24.62 Y340.337 E0.84975
G1 X15.38 Y340.337 E0.39728
G1 X15.38 Y320.521 E0.85196
;WIPE_START
M204 S1500
G1 X15.726 Y320.661 F18000
;WIPE_END
G1 X19.966 Y330.409
M204 S1000
G1 X24.206 Y340.156
;TYPE:Solid infill
;WIDTH:0.568971
G1 F1800
G1 X24.206 Y320.865 E0.8427
G1 X23.689 Y320.865 E0.02259
G1 X23.689 Y339.933 E0.83299
G1 X23.172 Y339.933 E0.02259
G1 X23.172 Y320.865 E0.83299
G1 X22.655 Y320.865 E0.02259
G1 X22.655 Y339.933 E0.83299
G1 X22.138 Y339.933 E0.02259
G1 X22.138 Y320.865 E0.83299
G1 X21.621 Y320.865 E0.02259
G1 X21.621 Y339.933 E0.83299
G1 X21.104 Y339.933 E0.02259
G1 X21.104 Y320.865 E0.83299
G1 X20.587 Y320.865 E0.02259
G1 X20.587 Y339.933 E0.83299
G1 X20.07 Y339.933 E0.02259
G1 X20.07 Y320.865 E0.83299
G1 X19.553 Y320.865 E0.02259
G1 X19.553 Y339.933 E0.83299
G1 X19.036 Y339.933 E0.02259
G1 X19.036 Y320.865 E0.83299
G1 X18.518 Y320.865 E0.02259
G1 X18.518 Y339.933 E0.83299
G1 X18.001 Y339.933 E0.02259
G1 X18.001 Y320.865 E0.83299
G1 X17.484 Y320.865 E0.02259
G1 X17.484 Y339.933 E0.83299
G1 X16.967 Y339.933 E0.02259
G1 X16.967 Y320.865 E0.83299
G1 X16.45 Y320.865 E0.02259
G1 X16.45 Y339.933 E0.83299
G1 X15.933 Y339.933 E0.02259
G1 X15.933 Y320.642 E0.8427
; INIT stop printing object patch_bed_leveling id:0 copy 0
;LAYER_CHANGE
;Z:0.4
;HEIGHT:0.2
;BEFORE_LAYER_CHANGE
;0.4


; stop printing object patch_bed_leveling id:0 copy 0
M204 S1500
G1 Z0.4 F18000
;AFTER_LAYER_CHANGE
;0.4
M140 S90 ; set bed temperature
; INIT printing object patch_bed_leveling id:0 copy 0
; printing object patch_bed_leveling id:0 copy 0
G1 X15.21 Y320.911
;TYPE:External perimeter
;WIDTH:0.42
G1 F2400
G1 X15.21 Y320.193 E0.02249
;TYPE:Overhang perimeter
G1 F3600
G1 X15.21 Y320.176 E0.00055
G1 X24.79 Y320.176 E0.30037
G1 X24.79 Y320.193 E0.00055
;TYPE:External perimeter
G1 F2400
G1 X24.79 Y320.911 E0.02249
G1 X15.27 Y320.911 E0.29849
;WIPE_START
G1 X15.41 Y320.564 F18000
;WIPE_END
; INIT stop printing object patch_bed_leveling id:0 copy 0
;LAYER_CHANGE
;Z:0.6
;HEIGHT:0.2
;BEFORE_LAYER_CHANGE
;0.6


; stop printing object patch_bed_leveling id:0 copy 0
G1 Z0.6 F18000
;AFTER_LAYER_CHANGE
;0.6
; INIT printing object patch_bed_leveling id:0 copy 0
; printing object patch_bed_leveling id:0 copy 0
G1 X15.21 Y320.795
G1 F900
G1 X15.21 Y320.06 E0.02304
G1 X24.79 Y320.06 E0.30037
G1 X24.79 Y320.795 E0.02304
G1 X15.27 Y320.795 E0.29849
;WIPE_START
G1 X15.41 Y320.449 F18000
;WIPE_END
; INIT stop printing object patch_bed_leveling id:0 copy 0
;LAYER_CHANGE
;Z:0.8
;HEIGHT:0.2
;BEFORE_LAYER_CHANGE
;0.8


; stop printing object patch_bed_leveling id:0 copy 0
G1 Z0.8 F18000
;AFTER_LAYER_CHANGE
;0.8
; INIT printing object patch_bed_leveling id:0 copy 0
; printing object patch_bed_leveling id:0 copy 0
G1 X15.21 Y320.68
G1 F900
G1 X15.21 Y319.945 E0.02304
G1 X24.79 Y319.945 E0.30037
G1 X24.79 Y320.68 E0.02304
G1 X15.27 Y320.68 E0.29849
;WIPE_START
G1 X15.41 Y320.333 F18000
;WIPE_END
; INIT stop printing object patch_bed_leveling id:0 copy 0
;LAYER_CHANGE
;Z:1
;HEIGHT:0.2
;BEFORE_LAYER_CHANGE
;1


; stop printing object patch_bed_leveling id:0 copy 0
G1 Z1 F18000
;AFTER_LAYER_CHANGE
;1
; INIT printing object patch_bed_leveling id:0 copy 0
; printing object patch_bed_leveling id:0 copy 0
G1 X15.21 Y320.564
G1 F900
G1 X15.21 Y319.83 E0.02304
G1 X24.79 Y319.83 E0.30037
G1 X24.79 Y320.564 E0.02304
G1 X15.27 Y320.564 E0.29849
;WIPE_START
G1 X15.41 Y320.218 F18000
;WIPE_END
; INIT stop printing object patch_bed_leveling id:0 copy 0
;LAYER_CHANGE
;Z:1.2
;HEIGHT:0.2
;BEFORE_LAYER_CHANGE
;1.2


; stop printing object patch_bed_leveling id:0 copy 0
G1 Z1.2 F18000
;AFTER_LAYER_CHANGE
;1.2
; INIT printing object patch_bed_leveling id:0 copy 0
; printing object patch_bed_leveling id:0 copy 0
G1 X15.21 Y320.449
G1 F900
G1 X15.21 Y319.714 E0.02304
G1 X24.79 Y319.714 E0.30037
G1 X24.79 Y320.449 E0.02304
G1 X15.27 Y320.449 E0.29849
;WIPE_START
G1 X15.41 Y320.102 F18000
;WIPE_END
; INIT stop printing object patch_bed_leveling id:0 copy 0
;LAYER_CHANGE
;Z:1.4
;HEIGHT:0.2
;BEFORE_LAYER_CHANGE
;1.4


; stop printing object patch_bed_leveling id:0 copy 0
G1 Z1.4 F18000
;AFTER_LAYER_CHANGE
;1.4
; INIT printing object patch_bed_leveling id:0 copy 0
; printing object patch_bed_leveling id:0 copy 0
G1 X15.21 Y320.333
G1 F900
G1 X15.21 Y319.599 E0.02304
G1 X24.79 Y319.599 E0.30037
G1 X24.79 Y320.333 E0.02304
G1 X15.27 Y320.333 E0.29849
;WIPE_START
G1 X15.41 Y319.987 F18000
;WIPE_END
; INIT stop printing object patch_bed_leveling id:0 copy 0
;LAYER_CHANGE
;Z:1.6
;HEIGHT:0.2
;BEFORE_LAYER_CHANGE
;1.6


; stop printing object patch_bed_leveling id:0 copy 0
G1 Z1.6 F18000
;AFTER_LAYER_CHANGE
;1.6
; INIT printing object patch_bed_leveling id:0 copy 0
; printing object patch_bed_leveling id:0 copy 0
G1 X15.21 Y320.218
G1 F900
G1 X15.21 Y319.525 E0.02174
G1 X24.79 Y319.525 E0.30037
G1 X24.79 Y320.218 E0.02174
G1 X15.27 Y320.218 E0.29849
;WIPE_START
G1 X15.41 Y319.871 F18000
;WIPE_END
; INIT stop printing object patch_bed_leveling id:0 copy 0
;LAYER_CHANGE
;Z:1.8
;HEIGHT:0.2
;BEFORE_LAYER_CHANGE
;1.8


; stop printing object patch_bed_leveling id:0 copy 0
G1 Z1.8 F18000
;AFTER_LAYER_CHANGE
;1.8
; INIT printing object patch_bed_leveling id:0 copy 0
; printing object patch_bed_leveling id:0 copy 0
G1 X15.21 Y320.102
G1 F900
G1 X15.21 Y319.871 E0.00725
G1 X24.79 Y319.871 E0.30037
G1 X24.79 Y320.102 E0.00725
G1 X15.27 Y320.102 E0.29849
;WIPE_START
G1 X15.326 Y319.902 F18000
;WIPE_END
; INIT stop printing object patch_bed_leveling id:0 copy 0
G1 E-0.75 F3000
G1 Z2.2 F18000
; stop printing object patch_bed_leveling id:0 copy 0
G1 X330 Y20 F18000
M140 S100 ; set bed temperature
;LAYER_CHANGE
;Z:0.2
;HEIGHT:0.2
;BEFORE_LAYER_CHANGE
;0.2


;AFTER_LAYER_CHANGE
;0.2
G1 X324.748 Y20.01 F18000
M204 S1000
G1 X319.496 Y20.019
G1 Z0.2
G1 E0.75 F1800
;TYPE:Skirt
;WIDTH:0.52
G1 X319.516 Y30.484 E0.41512
G1 X319.658 Y31.237 E0.03042
G1 X319.902 Y31.965 E0.03042
G1 X320.242 Y32.652 E0.03042
G1 X320.673 Y33.286 E0.03042
G1 X321.186 Y33.857 E0.03042
G1 X321.771 Y34.352 E0.03042
G1 X322.419 Y34.762 E0.03042
G1 X323.122 Y35.083 E0.03065
G1 X324.04 Y35.342 E0.03784
G1 X324.989 Y35.441 E0.03784
G1 X334.952 Y35.442 E0.39522
G1 X335.965 Y35.341 E0.04038
G1 X337.324 Y34.893 E0.05679
G1 X338.527 Y34.117 E0.05679
G1 X339.495 Y33.062 E0.05679
G1 X340.165 Y31.797 E0.05679
G1 X340.427 Y30.855 E0.03876
G1 X340.524 Y29.883 E0.03876
G1 X340.524 Y9.355 E0.81432
G1 X340.428 Y8.348 E0.04015
G1 X340.167 Y7.412 E0.03853
G1 X339.749 Y6.535 E0.03853
G1 X339.187 Y5.743 E0.03853
G1 X338.492 Y5.056 E0.03876
G1 X337.694 Y4.502 E0.03853
G1 X336.812 Y4.095 E0.03853
G1 X335.873 Y3.844 E0.03853
G1 X334.906 Y3.76 E0.03853
G1 X325.019 Y3.76 E0.3922
G1 X323.778 Y3.917 E0.04963
G1 X322.497 Y4.398 E0.05425
G1 X321.371 Y5.174 E0.05425
G1 X320.465 Y6.198 E0.05425
